app/assets/images/source-aide-repertoire.svg

<svg width="111" height="150" viewBox="0 0 111 150" fill="none" xmlns="http://www.w3.org/2000/svg">
<mask id="mask0" mask-type="alpha" maskUnits="userSpaceOnUse" x="0" y="0" width="111" height="150">
<rect width="111" height="150" rx="8" fill="#C4C4C4"/>
</mask>
<g mask="url(#mask0)">
<path d="M-1.16028 98.855C-1.16028 98.855 20.9445 91.1733 56.0049 91.1733C91.0654 91.1733 113.002 81.8472 113.002 81.8472V154.036H-1.16028V98.855Z" fill="#666666"/>
<path fill-rule="evenodd" clip-rule="evenodd" d="M-1.19543 82.4651C-1.18035 82.4226 1.91521 73.7519 21.1697 73.9468C31.0199 74.0465 40.3822 70.7721 50.3989 67.2688C60.0101 63.9074 70.2239 60.3352 82.0493 59.3309C106.199 57.2799 113.01 62.9468 113.01 62.9468V54.1132L113.01 54.1132L113.01 139.445C113.01 139.445 109.946 130.72 90.6445 130.915C80.7942 131.015 71.432 127.736 61.4153 124.228C51.804 120.862 41.5903 117.286 29.7649 116.28C5.61523 114.226 -1.19543 103.306 -1.19543 103.306L-1.19543 82.4651Z" fill="#FB926B"/>
<path d="M113.001 12.442H96.0258L-1.16073 8.47401V95.9955C-1.16073 95.9955 1.90145 88.6493 21.196 88.814C40.4906 88.9787 57.9123 80.4447 82.0528 78.7157C106.193 76.9866 113.001 65.5686 113.001 65.5686L113.001 12.442Z" fill="#9ADBD0"/>
<path fill-rule="evenodd" clip-rule="evenodd" d="M55 41C55 39.3431 56.3431 38 58 38H76C77.6569 38 79 39.3431 79 41V42H81C82.6569 42 84 43.3431 84 45V46H86C87.6569 46 89 47.3431 89 49V52V60V88C89 89.6569 87.6569 91 86 91H36C34.3431 91 33 89.6569 33 88V87H31C29.3431 87 28 85.6569 28 84V83H26C24.3431 83 23 81.6569 23 80V46C23 44.3431 24.3431 43 26 43H54C54.5523 43 55 42.5523 55 42V41ZM28 81V50C28 48.3431 29.3431 47 31 47H59C59.5523 47 60 46.5523 60 46V45C60 43.3431 61.3431 42 63 42H77V41C77 40.4477 76.5523 40 76 40H58C57.4477 40 57 40.4477 57 41V42C57 43.6569 55.6569 45 54 45H26C25.4477 45 25 45.4477 25 46V80C25 80.5523 25.4477 81 26 81H28ZM33 54V85H31C30.4477 85 30 84.5523 30 84V50C30 49.4477 30.4477 49 31 49H59C60.6569 49 62 47.6569 62 46V45C62 44.4477 62.4477 44 63 44H81C81.5523 44 82 44.4477 82 45V46H68C66.3431 46 65 47.3431 65 49V50C65 50.5523 64.5523 51 64 51H36C34.3431 51 33 52.3431 33 54ZM68 48C67.4477 48 67 48.4477 67 49V50C67 51.6569 65.6569 53 64 53H36C35.4477 53 35 53.4477 35 54V88C35 88.5523 35.4477 89 36 89H86C86.5523 89 87 88.5523 87 88V60V52V49C87 48.4477 86.5523 48 86 48H68Z" fill="#FBF9FA"/>
<path d="M113.001 -4.62228H96.0258H-1.16073V45.2075C-1.16073 45.2075 1.90144 36.532 21.196 36.7265C40.4906 36.921 57.9123 24.217 82.0528 22.175C106.193 20.1331 113.001 25.775 113.001 25.775L113.001 -4.62228Z" fill="#C1C1FB"/>
<path d="M18.1434 127.469C18.5174 127.469 18.8731 127.583 19.2104 127.81C19.5478 128.03 19.8191 128.331 20.0244 128.712C20.2298 129.086 20.3324 129.497 20.3324 129.944C20.3324 130.384 20.2298 130.795 20.0244 131.176C19.8191 131.557 19.5478 131.862 19.2104 132.089C18.8731 132.309 18.5174 132.419 18.1434 132.419H16.2294V134.498C16.2294 134.696 16.1708 134.857 16.0534 134.982C15.9361 135.107 15.7821 135.169 15.5914 135.169C15.4081 135.169 15.2578 135.107 15.1404 134.982C15.0231 134.85 14.9644 134.689 14.9644 134.498V128.14C14.9644 127.949 15.0268 127.792 15.1514 127.667C15.2834 127.535 15.4448 127.469 15.6354 127.469H18.1434ZM18.1434 131.165C18.2828 131.165 18.4184 131.106 18.5504 130.989C18.6898 130.872 18.7998 130.721 18.8804 130.538C18.9684 130.347 19.0124 130.149 19.0124 129.944C19.0124 129.739 18.9684 129.544 18.8804 129.361C18.7998 129.17 18.6898 129.02 18.5504 128.91C18.4184 128.793 18.2828 128.734 18.1434 128.734H16.2294V131.165H18.1434ZM24.8924 127.469C25.5817 127.469 26.172 127.641 26.6634 127.986C27.162 128.323 27.5397 128.785 27.7964 129.372C28.0604 129.951 28.1924 130.6 28.1924 131.319C28.1924 132.038 28.0604 132.69 27.7964 133.277C27.5397 133.856 27.162 134.318 26.6634 134.663C26.172 135 25.5817 135.169 24.8924 135.169H22.2634C22.0727 135.169 21.9114 135.107 21.7794 134.982C21.6547 134.85 21.5924 134.689 21.5924 134.498V128.14C21.5924 127.949 21.6547 127.792 21.7794 127.667C21.9114 127.535 22.0727 127.469 22.2634 127.469H24.8924ZM24.7824 133.904C25.4424 133.904 25.9374 133.662 26.2674 133.178C26.5974 132.687 26.7624 132.067 26.7624 131.319C26.7624 130.571 26.5937 129.955 26.2564 129.471C25.9264 128.98 25.435 128.734 24.7824 128.734H22.9674V133.904H24.7824ZM30.8307 128.734V130.67H33.2067C33.3973 130.67 33.555 130.732 33.6797 130.857C33.8117 130.974 33.8777 131.128 33.8777 131.319C33.8777 131.48 33.8117 131.623 33.6797 131.748C33.555 131.873 33.3973 131.935 33.2067 131.935H30.8307V134.498C30.8307 134.689 30.761 134.85 30.6217 134.982C30.4897 135.107 30.332 135.169 30.1487 135.169C29.9433 135.169 29.7747 135.107 29.6427 134.982C29.518 134.857 29.4557 134.696 29.4557 134.498V128.14C29.4557 127.949 29.518 127.792 29.6427 127.667C29.7747 127.535 29.936 127.469 30.1267 127.469H33.7017C33.8923 127.469 34.05 127.531 34.1747 127.656C34.3067 127.773 34.3727 127.927 34.3727 128.118C34.3727 128.279 34.3067 128.422 34.1747 128.547C34.05 128.672 33.8923 128.734 33.7017 128.734H30.8307Z" fill="#FBF9FA"/>
<rect x="10.0773" y="123.807" width="28.0725" height="15.1159" rx="4" stroke="#FBF9FA" stroke-width="2"/>
</g>
</svg>

<svg width="111" height="150" fill="none" xmlns="http://www.w3.org/2000/svg">
  <mask id="a" style="mask-type:alpha" maskUnits="userSpaceOnUse" x="0" y="0" width="111" height="150">
    <rect width="111" height="150" rx="8" fill="#C4C4C4"/>
  </mask>
  <g mask="url(#a)">
    <path d="M114.002 28.442H97.026L-.16 24.474V167.78s3.062-7.346 22.357-7.182c19.294.165 36.716-8.369 60.856-10.098 24.141-1.729 30.949-13.147 30.949-13.147V28.442Z" fill="#FB926B"/>
    <path d="m-.713 66.672.554 87.365h114.162v-23.028C114.003 126 109 115.5 95.5 113c-6.883-1.275-31.5-5-39.5-9-21.913-10.957-21.5-25.5-32.5-30.5-14.11-6.414-23.66-6-24.213-6.828Z" fill="#000091"/>
    <path d="M114.002-4.622H-.16v57.83s3.062-8.676 22.357-8.481c19.294.194 36.716-12.51 60.856-14.552 24.141-2.042 30.949 3.6 30.949 3.6V-4.622Z" fill="#ECECFE"/>
    <path fill-rule="evenodd" clip-rule="evenodd" d="M55 41a3 3 0 0 1 3-3h18a3 3 0 0 1 3 3v1h2a3 3 0 0 1 3 3v1h2a3 3 0 0 1 3 3v39a3 3 0 0 1-3 3H36a3 3 0 0 1-3-3v-1h-2a3 3 0 0 1-3-3v-1h-2a3 3 0 0 1-3-3V46a3 3 0 0 1 3-3h28a1 1 0 0 0 1-1v-1ZM28 81V50a3 3 0 0 1 3-3h28a1 1 0 0 0 1-1v-1a3 3 0 0 1 3-3h14v-1a1 1 0 0 0-1-1H58a1 1 0 0 0-1 1v1a3 3 0 0 1-3 3H26a1 1 0 0 0-1 1v34a1 1 0 0 0 1 1h2Zm5-27v31h-2a1 1 0 0 1-1-1V50a1 1 0 0 1 1-1h28a3 3 0 0 0 3-3v-1a1 1 0 0 1 1-1h18a1 1 0 0 1 1 1v1H68a3 3 0 0 0-3 3v1a1 1 0 0 1-1 1H36a3 3 0 0 0-3 3Zm35-6a1 1 0 0 0-1 1v1a3 3 0 0 1-3 3H36a1 1 0 0 0-1 1v34a1 1 0 0 0 1 1h50a1 1 0 0 0 1-1V49a1 1 0 0 0-1-1H68Z" fill="#FBF9FA"/>
    <path d="M18.143 127.469c.374 0 .73.114 1.067.341.337.22.609.521.814.902.206.374.308.785.308 1.232 0 .44-.102.851-.308 1.232a2.518 2.518 0 0 1-.814.913c-.337.22-.693.33-1.067.33H16.23v2.079a.678.678 0 0 1-.176.484.604.604 0 0 1-.462.187.59.59 0 0 1-.45-.187.702.702 0 0 1-.177-.484v-6.358a.658.658 0 0 1 .671-.671h2.508Zm0 3.696c.14 0 .275-.059.407-.176.14-.117.25-.268.33-.451.088-.191.132-.389.132-.594 0-.205-.044-.4-.132-.583a1.11 1.11 0 0 0-.33-.451.612.612 0 0 0-.407-.176H16.23v2.431h1.914Zm6.75-3.696c.688 0 1.279.172 1.77.517.499.337.877.799 1.133 1.386.264.579.396 1.228.396 1.947 0 .719-.132 1.371-.396 1.958a3.246 3.246 0 0 1-1.133 1.386c-.491.337-1.082.506-1.77.506h-2.63a.677.677 0 0 1-.484-.187.678.678 0 0 1-.187-.484v-6.358a.658.658 0 0 1 .671-.671h2.63Zm-.11 6.435c.66 0 1.154-.242 1.484-.726.33-.491.495-1.111.495-1.859s-.169-1.364-.506-1.848c-.33-.491-.821-.737-1.474-.737h-1.815v5.17h1.815Zm6.047-5.17v1.936h2.376a.64.64 0 0 1 .473.187.588.588 0 0 1 .198.462.576.576 0 0 1-.198.429.64.64 0 0 1-.473.187H30.83v2.563a.64.64 0 0 1-.209.484.664.664 0 0 1-.473.187.706.706 0 0 1-.506-.187.655.655 0 0 1-.187-.484v-6.358a.658.658 0 0 1 .671-.671h3.575a.64.64 0 0 1 .473.187.588.588 0 0 1 .198.462.576.576 0 0 1-.198.429.64.64 0 0 1-.473.187h-2.87Z" fill="#FBF9FA"/>
    <rect x="10.077" y="123.807" width="28.073" height="15.116" rx="4" stroke="#FBF9FA" stroke-width="2"/>
  </g>
</svg>
